!!!COM: Music21
!!!OTL: jig_Dáithi-Sproules
!!!OMV: jig_Dáithi-Sproules
**kern
*clefG2
*k[f#]
*e:
*M6/8
=1
8bL
8a
8bJ
8eL
8f#
8eJ
=
8eL
8dd
8eeJ
8ddL
8b
8gJ
=
8aL
8b
8aJ
8dL
8e
8dJ
=
8f#L
8g
8aJ
8gL
8f#
8eJ
=
4.g
8aL
8g
8aJ
=
8bL
8dd
8ggJ
8ddL
8b
8gJ
=
8aL
8g
8aJ
8ccL
8b
8aJ
!!linebreak:original
=
8bL
8g
8eJ
8eL
8ee
8ddJ
=||
*M6/8
8bL
8a
8bJ
8eL
8f#
8eJ
=
8eL
8dd
8eeJ
8ddL
8b
8gJ
=
8aL
8b
8aJ
8dL
8e
8dJ
=
8f#L
8g
8aJ
8gL
8f#
8eJ
=
4.g
8aL
8g
8aJ
!!linebreak:original
=
8bL
8dd
8ggJ
8ddL
8b
8gJ
=
8aL
8g
8aJ
8ccL
8b
8aJ
=
8bL
8g
8eJ
8eL
8ee
8ff#J
=||
8ggL
8ee
8bbJ
8eeL
8ff#
8eeJ
=
8bbL
8ee
8ggJ
8ff#L
8ee
8ddJ
=
4.a
16bLL
16ccJ
8dd
8eeJ
!!linebreak:original
=
8ff#L
8gg
8aaJ
8ggL
8ff#
8eeJ
=
4.gg
8aaL
8gg
8aaJ
=
8bbL
8gg
8eeJ
8ff#L
8gg
8aaJ
=
8ggL
8ff#
8eeJ
8ddL
8b
8aJ
=
8bL
8ee
8dd#XJ
4ee
8ff#
=||
8ggL
8ee
8bbJ
8eeL
8ff#
8eeJ
=
8bbL
8ee
8ggJ
8ff#L
8ee
8ddJ
!!linebreak:original
=
4.a
16bLL
16ccJ
8dd
8eeJ
=
8ff#L
8gg
8aaJ
8ggL
8ff#
8eeJ
=
4.gg
8aaL
8gg
8aaJ
=
8bbL
8gg
8eeJ
8ff#L
8gg
8aaJ
=
8ggL
8ff#
8eeJ
8ddL
8b
8aJ
=
8bL
8ee
8dd#XJ
4ee
8ddn
=||
*-
